!!!OTL: Einst stand ich auf hohen Bergen (1-13), S. 34
!!!id: K0089
**kern
*clefG2
*k[f#]
*G:
{8d
8d
=1
4.g
8d
4d
=2
4B
4d
4b
=3
4b
4a}
=4
{8d
8d
=5
4d
4f#
4a
=6
4ee
4dd
4cc
=7
2b}
=8
{8b
8cc
=9
4.dd
8dd
8dd
8dd
=10
4dd
4cc
4b
=11
4b
4a}
=12
{8d
8d
=13
4d
4f#
4a
=14
4ee
4dd
4cc
=15
2b}
=16
{8b
8cc
=17
4.dd
8dd
8dd
8dd
=18
4dd
4cc
4b
=19
4b
4a}
=20
{8d
8d
=21
4d
4f#
4a
=22
4cc
4b
4a
=23
2g}
==
*-
!!!minrhy: 8
!!!meters: 3/4 ]  ZZ[6
!!!cut: Einst stand ich auf hohen Bergen (1-13), S. 34
!!!reg: Luxemburg
!!!trd: KINTZELE, Guillaume: An der Ucht, Bd. 1, Luxemburg 1926
!!!rhy1: XX  X_.XX_  X_X_X_  X_X_
!!!rhy2: XX  X_X_X_  X_X_X_  X__
!!!key: K0089  08  G 3/4 ]  ZZ[6
!!!mod: HEPTATONIK IONISCH]  AMBITUS[11
!!!kad: 232321
!!!akz: 1-33_-563_553_-563_553_-541_
!!!fot: 'a__b__c__b__c__d__
!!!for: 'a__b__c__b__c__b__
!!!fok: '~a_^a_^d_^a_^d_^a_
!! PHRAS[AUFTAKTIG]
!!!fkt: verbotene Liebe, Gang ins Kloster
!!!bem: in der Quelle mit einer 2. Stimme versehen
!! KINTZELE
!! PR[51] 2K[0] 2G[17] 3K[4] 3G[0] 4A[6] 4Ü[0] 5A[0] 6K[0] 6G[0]
!! 7K[0] 7G[0] 8A[0] MEHR[0] SI[26] ABS[53] SR[17] SP[9]
!! ST[6] 2k[2] 2g[11] 3k[6] 3g[4] 4d[0] 4ü[0] 5d[0] 6k[0] 6g[0]
!! 7k[0] 7g[0] 8d[0] mehr[0] si[23] dm[+3] sr[13] sp[9]
!! 1F[55] 2F[31] 3F[15] 4F[0] LF[0] 2P[0] 3P[0] 4P[0] TRI[0] DF[3] AB[55]
!! TF[0] U3K[0] U3[0] U4[0] U4Ü[0] U5[4] U6K[0] U6[4] U7K[0] U7[0]
!! N1[15] N2K[0] N2[26] N3K[0] N3[28] N4[13] N4Ü[0] N5[11] N6K[0] N6[0]
!!!n7k: 0] N7[0] O1[0] O2K[0] O2[0] O3K[0] O3[0] HÖ[0
